icons/svg/24x24/read later/outline.svg

<svg xmlns="http://www.w3.org/2000/svg" width="24" height="24" viewBox="0 0 24 24">
  <path fill-rule="evenodd" d="M22,3.3535 L22,15.0275 C22,15.3265 21.858,15.6095 21.615,15.7935 C21.372,15.9795 21.058,16.0465 20.758,15.9705 C18.77,15.4875 16.867,15.4855 15,15.9475 L15,13.9375 C16.633,13.5945 18.291,13.5565 20,13.8325 L20,4.0975 C17.673,3.6295 14.705,4.3055 13,5.7235 L13,10.1635 C12.426,9.5595 11.753,8.9635 11,8.5765 L11,5.7475 C9.297,4.3195 6.332,3.6275 4,4.0975 L4,9.5495 C3.247,9.9365 2.574,10.5325 2,11.1355 L2,3.3535 C2,2.9345 2.275,2.5625 2.684,2.4305 C5.66,1.4635 9.55,2.1815 12,4.0335 C14.45,2.1815 18.34,1.4625 21.316,2.4305 C21.725,2.5625 22,2.9345 22,3.3535 M10.895,18.6975 C10.719,19.0475 10.366,19.2495 9.999,19.2495 C9.849,19.2495 9.696,19.2155 9.553,19.1445 L7.553,18.1445 C7.214,17.9745 7,17.6285 7,17.2495 L7,13.2495 C7,12.6975 7.447,12.2495 8,12.2495 C8.553,12.2495 9,12.6975 9,13.2495 L9,16.6315 L10.447,17.3555 C10.941,17.6025 11.142,18.2035 10.895,18.6975 M8,9.9995 C4.687,9.9995 2,12.6865 2,15.9995 C2,19.3135 4.687,21.9995 8,21.9995 C11.313,21.9995 14,19.3135 14,15.9995 C14,12.6865 11.313,9.9995 8,9.9995"/>
</svg>

<svg width="24" height="24" fill="none" xmlns="http://www.w3.org/2000/svg">
  <path fill-rule="evenodd" clip-rule="evenodd" d="M22 3.353v11.674a.962.962 0 01-.385.766 1.002 1.002 0 01-.857.177c-1.988-.483-3.891-.485-5.758-.023v-2.01a13.552 13.552 0 015-.105V4.097c-2.327-.468-5.295.208-7 1.626v4.44c-.574-.604-1.247-1.2-2-1.587V5.747c-1.703-1.428-4.668-2.12-7-1.65V9.55c-.753.387-1.426.983-2 1.586V3.353c0-.419.275-.79.684-.923C5.66 1.463 9.55 2.181 12 4.033c2.45-1.852 6.34-2.57 9.316-1.603a.974.974 0 01.684.923zM10.895 18.697a1.002 1.002 0 01-1.342.447l-2-1A1.001 1.001 0 017 17.25v-4a1 1 0 112 0v3.382l1.447.724a1 1 0 01.448 1.342zM8 10a6 6 0 10.002 12.002A6 6 0 008 10z" fill="#000"/>
</svg>
